X:1
T:Little Black Hen
S:Grant Lamb (1915-1981, Portage la Prairie, south-central Manitoba)
M:C|
L:1/8
R:Reel
D:Voyager VRCD 312, Grant Lamb - "Manitoba Fiddler" (originally recorded 1978).
F: https://www.slippery-hill.com/recording/little-black-hen
Z:Transcribed by Andrew Kuntz
K:C
ef|"*"g^fga gfga|(g/a/g)e2 c2 Bc|d2G2A2B2|cBcd e2ef|
g^fga gfga|(g/a/g)e2 c2 Bc|d2G2A2B2|[E4c4][E2c2]:|
K:G
(3ABc|dedc Bcde|g2B2d3 ((3e/g/a/|f2)A2 ABcd|ed2^c d2Bc|
dedc Bcde|g2B2 d3 (e/g/|f2)d2e2f2|gfga g2:|
P:Substitutions
"*"g^fga gfga/g/|a/g/-g e2c2 Bc||

